!!!!SEGMENT: pl-kk--kk-i-111--003-001_anonim--deo-gratias-per-octavas-1mum.krn
!!!cenid: 18xx:2557
!!!COM: Anonim
!!!COM-rismID: pe30004985
!!!CDT:
!!!CNT:
!!!GTL: Deo gratias
!!!OTL: Per Octavas 1mum
!!!OMV: 001
!!!PDT: 1824
!!!AGN: Sacred
!!!SMS-siglum: PL-Kk
!!!SMS-shelfmark: Kk.I.111
!!!SMS-shelfwork: 003-001 G
!!!SMS-variant:
!!!SMS-altvar:
!!!NIFC-rismSourceID: 1001157671
!!!NIFC-islandoraID: pl-kk:3371
!!!URL-pdf-islandora: https://repozytorium.nifc.pl/islandora/object/pl-kk%3A3371/datastream/PDF/view
!!!URL-scan: https://polish.musicsources.pl/pl/lokalizacje/galeria/rekopisy/5747 @EN{Scan on Polish Music Herritage in Open Access Website} @PL{Skany w portalu Dziedzictwo Muzyki Polskiej w otwartym dostępie}
!!!ONB-nifc: UWAGA: A, T1, T2. Podział na poszególne Deo gratias. A: skan 0002 (m.in)
!!!AIN: 1 alto 2 tenor
!!!key:
**kern	**text	**kern	**text	**kern	**text
*part3	*part3	*part2	*part2	*part1	*part1
*staff3	*staff3	*staff2	*staff2	*staff1	*staff1
*Itenor	*	*Itenor	*	*Ialto	*
*I"Tenore Vagante.	*	*I"Tenore Chorale.	*	*I"Alto.	*
*I'T 2	*	*I'T 1	*	*I'A	*
*clefC4	*	*clefC4	*	*clefC3	*
*k[]	*	*k[]	*	*k[]	*
*d:	*	*d:	*	*d:	*
*M2/1	*	*M2/1	*	*M2/1	*
*met(C|)	*	*met(C|)	*	*met(C|)	*
*all\right	*	*	*	*	*
=1-	=1-	=1-	=1-	=1-	=1-
!LO:TX:t=P:problem=kreska pseudotaktowa	!	!LO:TX:t=P:problem=kreska pseudotaktowa	!	!	!
*	*	*	*	*	*
!	!	!	!	!LO:TX:t=P:problem=kreska pseudotaktowa	!
1e	De-	0A	De-	1e	De-
*2\right	*	*	*	*2\right	*
2e\	-o	.	.	2e\	-o
!	!	!	!	!LO:TX:t=P:problem=kreska pseudotaktowa	!
4d\	.	.	.	2f\	.
!LO:TX:t=P:problem=kreska pseudotaktowa	!	!	!	!	!
4c\	.	.	.	.	.
=2-	=2-	=2-	=2-	=2-	=2-
!	!	!	!	!LO:TX:t=P:problem=dysonujący pion harmoniczny	!
!LO:TX:t=P:problem=kreska pseudotaktowa	!	!LO:TX:t=P:problem=kreska pseudotaktowa	!	!LO:TX:t=P:problem=kreska pseudotaktowa	!
1B	gra-	1G#X	-o	1g	.
!	!	!LO:TX:t=P:problem=kreska pseudotaktowa	!	!	!
2.c\	.	1A	.	2e\	.
.	.	.	.	1e\	gra-
!LO:TX:t=P:problem=kreska pseudotaktowa	!	!	!	!	!
4c\	-ti-	.	.	.	.
=3-	=3-	=3-	=3-	=3-	=3-
!	!	!LO:TX:t=P:problem=kreska pseudotaktowa	!	!	!
2c\	-as	1c	.	.	.
!LO:TX:t=P:problem=kreska pseudotaktowa	!	!	!	!LO:TX:t=P:problem=kreska pseudotaktowa	!
2A\	De-	.	.	2f\	.
!	!	!LO:TX:t=P:problem=kreska pseudotaktowa	!	!	!
2B\	-o	1Bn	.	2g\	.
!LO:TX:t=P:problem=kreska pseudotaktowa	!	!	!	!	!
2G/	.	.	.	1e\	.
=4-	=4-	=4-	=4-	=4-	=4-
!LO:TX:t=P:problem=kreska pseudotaktowa	!	!LO:TX:t=P:problem=kreska pseudotaktowa	!	!	!
1A	.	1A	.	.	.
!	!	!	!	!LO:TX:t=P:problem=kreska pseudotaktowa	!
.	.	.	.	2d\	.
!LO:TX:t=P:problem=kreska pseudotaktowa	!	!LO:TX:t=P:problem=kreska pseudotaktowa	!	!LO:TX:t=P:problem=kreska pseudotaktowa	!
1Bn	.	1Gny	.	[>1e	.
=5-	=5-	=5-	=5-	=5-	=5-
!	!	!LO:TX:t=P:problem=kreska pseudotaktowa	!	!	!
2c\	.	0A	.	2e\]	.
!LO:TX:t=P:problem=kreska pseudotaktowa	!	!	!	!LO:TX:t=P:problem=kreska pseudotaktowa	!
2d\	.	.	.	2f\	.
2A\	gra-	.	.	2e\	.
!LO:TX:t=P:problem=kreska pseudotaktowa	!	!	!	!LO:TX:t=P:problem=kreska pseudotaktowa	!
2c\	.	.	.	2e\	-ti-
=6-	=6-	=6-	=6-	=6-	=6-
!	!	!LO:TX:t=P:problem=kreska pseudotaktowa	!	!	!
1.c	.	1A	.	2e\	-as
!	!	!	!	!LO:TX:t=P:problem=kreska pseudotaktowa	!
.	.	.	.	2c/	De-
!	!	!LO:TX:t=P:problem=kreska pseudotaktowa	!	!LO:TX:t=P:problem=kreska pseudotaktowa	!
.	.	1G	.	1e	-o
!LO:TX:t=P:problem=kreska pseudotaktowa	!	!	!	!	!
2c\	-ti-	.	.	.	.
=7-	=7-	=7-	=7-	=7-	=7-
!LO:TX:t=P:problem=kreska pseudotaktowa	!	!LO:TX:t=P:problem=kreska pseudotaktowa	!	!	!
1A	-as	1F	.	2f\	.
.	.	.	.	1d	gra-
!LO:TX:t=P:problem=kreska pseudotaktowa	!	!LO:TX:t=P:problem=kreska pseudotaktowa	!	!	!
1A	De-	1E	.	.	.
!	!	!	!	!LO:TX:t=P:problem=kreska pseudotaktowa	!
.	.	.	.	2c\	-ti-
=8-	=8-	=8-	=8-	=8-	=8-
!LO:LB:g=original	!	!LO:TX:t=P:problem=kreska pseudotaktowa	!	!LO:TX:t=P:problem=kreska pseudotaktowa	!
2F/	-o	1D	.	1d	-as
!LO:TX:t=P:problem=kreska pseudotaktowa	!	!	!	!	!
2G/	.	.	.	.	.
!LO:TX:t=P:problem=kreska pseudotaktowa	!	!LO:TX:t=P:problem=kreska pseudotaktowa	!	!LO:LB:g=original	!
0A	.	0E	.	1.c	De-
=9-	=9-	=9-	=9-	=9-	=9-
.	.	.	.	.	.
!	!	!	!	!LO:TX:t=P:problem=kreska pseudotaktowa	!
.	.	.	.	2e\	.
!LO:TX:t=P:problem=kreska pseudotaktowa	!	!LO:TX:t=P:problem=kreska pseudotaktowa	!	!LO:TX:t=P:problem=kreska pseudotaktowa	!
1D	gra-	1G	gra-	1d	-o
=10-	=10-	=10-	=10-	=10-	=10-
!	!	!LO:TX:t=P:problem=kreska pseudotaktowa	!	!LO:TX:t=P:problem=kreska pseudotaktowa	!
2E/	.	1A	.	1c	.
4E/	.	.	.	.	.
!LO:TX:t=P:problem=kreska pseudotaktowa	!	!	!	!	!
4F/	.	.	.	.	.
!	!	!LO:TX:t=P:problem=kreska pseudotaktowa	!	!	!
2G/	.	1D	.	2d\	gra-
!LO:TX:t=P:problem=kreska pseudotaktowa	!	!	!	!LO:TX:t=P:problem=kreska pseudotaktowa	!
2A\	.	.	.	2f\	.
=11-	=11-	=11-	=11-	=11-	=11-
!	!	!LO:TX:t=P:problem=kreska pseudotaktowa	!	!	!
2B\	.	1E	.	2e\	.
!	!	!	!	!LO:TX:t=P:problem=kreska pseudotaktowa	!
1c	.	.	.	2g\	.
!	!	!LO:TX:t=P:problem=kreska pseudotaktowa	!	!	!
.	.	1F	.	2f\	.
!LO:TX:t=P:problem=kreska pseudotaktowa	!	!	!	!LO:TX:t=P:problem=kreska pseudotaktowa	!
2B\	.	.	.	2d\	.
=12-	=12-	=12-	=12-	=12-	=12-
!LO:TX:t=P:problem=kreska pseudotaktowa	!	!LO:TX:t=P:problem=kreska pseudotaktowa	!	!LO:TX:t=P:problem=kreska pseudotaktowa	!
1c	.	0G	.	1e	.
2d\	.	.	.	2d\	.
!LO:TX:t=P:problem=kreska pseudotaktowa	!	!	!	!LO:TX:t=P:problem=kreska pseudotaktowa	!
2c\	.	.	.	2e\	.
=13-	=13-	=13-	=13-	=13-	=13-
!LO:TX:t=P:problem=kreska pseudotaktowa	!	!LO:TX:t=P:problem=kreska pseudotaktowa	!	!	!
0A	.	1F	.	2f\	.
!	!	!	!	!LO:TX:t=P:problem=kreska pseudotaktowa	!
.	.	.	.	2g\	.
!	!	!LO:TX:t=P:problem=kreska pseudotaktowa	!	!	!
.	.	1E	.	2a\	.
.	.	.	.	1e\	.
=14-	=14-	=14-	=14-	=14-	=14-
!	!	!LO:TX:t=P:problem=kreska pseudotaktowa	!	!	!
2A\	.	1D	.	.	.
!LO:TX:t=P:problem=kreska pseudotaktowa	!	!	!	!	!
2G#X/	-ti-	.	.	1d	.
!LO:TX:t=P:problem=kreska pseudotaktowa	!	!LO:TX:t=P:problem=kreska pseudotaktowa	!	!	!
0A	-as.	1E	.	.	.
!	!	!	!	!LO:TX:t=P:problem=kreska pseudotaktowa	!
.	.	.	.	2c#X\	-ti-
=15-	=15-	=15-	=15-	=15-	=15-
!	!	!	!	!LO:N:vis=0.	!
.	.	2.F/	.	0d	-as
!	!	!LO:TX:t=P:problem=kreska pseudotaktowa	!	!	!
.	.	4F/	-ti-	.	.
!LO:N:vis=0	!	!LO:N:vis=0	!	!	!
1A;	.	1D;	-as.	.	.
=-	=-	=-	=-	=-	=-
*-	*-	*-	*-	*-	*-
!!!system-decoration: [(s1,s2,s3)]
!!!ENC: Marta Chmielewska
!!!END: 2021-08-04
!!!ENC: Tomasz Grochalski
!!!END: 2021-07-09
